X: 1
T: the San Francisco Branch Polka
C: Barbara McOwen (Feb 1988)
R: polka
Z: 2006 John Chambers <jc:trillian.mit.edu>
M: 2/4
L: 1/16
K: C
gf \
| "C"efg2 G2g2 | "G7"edcB "C"c4 | "C"gece "A7"agfe | "Dm"f2d2 d3c \
| "G7"Bcd2 D2d2 | "G7"GABc d4 | "G7"fede fagf | "C"e6 ||
gf \
| "C"efg2 G2g2 | "G7"edcB "C"c4 | "F"A2d^c dAeA | "Dm"f8 \
| "G7"afdf a2ba | "C"gece "A7"g4 | "Dm"agfe "G7"d2g2 | "C"c6 |]
GG \
| "C"cGdG eGGG | "C"cGdG e4 | "Dm"f3e  d2f2 | "G"[G6G,6] GG \
| "G"BGcG dGGG | "G"BGcG d4 | "G7"fedc B2G2 | "C"C6 ||
GG \
| "C"cGdG eGGG | cGdG e4 | "F"f3e d2c2 | "Dm"a8 \
| "G7"afdf a2ba | "C"gece "A7"g4 | "Dm"agfe "G7"d2g2 | "C"c6 |]
